X:380
T: Baogumiao xiangbadao
N: C1415
O: China, Gansu, Liangdang
S: I, 132]
R: Shange, Langkuaihuo]
M: 4/4
L: 1/16
K: Ab
FF2FB2B2=A2B2F4
c4f4ecfec2cc | f2c2B2F2c4f4 | B2ABc4=B2A2F4 |
FF2F_B2B=BA2_B2F4 | B2B2c4=B3AF4 |
_BF2FB2B=BA2_B2F4
c4f4e2f2c2c2 | f2c2B2F2c4f4 | B2ABc4=B3AF4 |
FF2F_B2B=BA2_B2F4 | B2B2c4=B3AF4

